X:467
T: DA DROBEN AUF JENEM BERGE
N: E0419A
O: Europa, Mitteleuropa, Deutschland, Hessen; Westfalen; Franken
R: Liebes - Lied, Abschied
M: 6/8
L: 1/16
K: G
D2 | G3FG2A2G2A2 | B4A2G4
A2 | B3cd2d2c2B2 | A8z2
Bc | d2B2d2d2B2d2 | e3fe2d4
c2 | B3cB2A2G2A2 | G8z2

